dist/assets/img/first/icon3.svg

<svg width="57" height="57" viewBox="0 0 57 57" fill="none" xmlns="http://www.w3.org/2000/svg">
<path d="M4.91357 9.8276V20.2448C4.91357 36.0545 14.1279 50.4136 28.4998 57C42.8717 50.4136 52.086 36.0545 52.086 20.2448V9.8276C44.4667 9.8256 37.0881 7.1555 31.2319 2.28L28.4998 0L25.7677 2.28C19.9115 7.1555 12.5329 9.8256 4.91357 9.8276Z" fill="#4398D1"/>
<path d="M40.0277 7.5083C36.5782 28.6376 26.6523 41.5314 17.208 49.246C20.5022 52.4557 24.3212 55.0777 28.4999 57C42.8718 50.4136 52.0861 36.0545 52.0861 20.2448V9.8276C47.9556 9.82459 43.8643 9.03739 40.0277 7.5083Z" fill="#3E8CC7"/>
<path d="M32.4312 27.5173V21.6206C32.4312 19.4497 30.6711 17.6897 28.5002 17.6897C26.3293 17.6897 24.5692 19.4497 24.5692 21.6206V27.5173H20.6382V21.6206C20.6382 17.2789 24.1584 13.7585 28.5003 13.7585C32.8421 13.7585 36.3624 17.2787 36.3624 21.6206V27.5173H32.4312Z" fill="#E5E5E5"/>
<path d="M20.6377 27.5173H24.5687V22.8787C23.2901 23.5136 21.9781 24.0786 20.6377 24.569V27.5173Z" fill="#D6D6D6"/>
<path d="M33.8952 15.9109C33.0245 16.8996 32.082 17.8233 31.0747 18.6725C31.9307 19.4145 32.425 20.4886 32.4309 21.6208V27.5174H36.3619V21.6208C36.36 19.4596 35.4677 17.3938 33.8952 15.9109Z" fill="#D6D6D6"/>
<path d="M39.3106 25.5518H17.6899V43.2415H39.3106V25.5518Z" fill="#FDB62F"/>
<path d="M39.3106 25.5518H17.6899V43.2415H39.3106V25.5518Z" fill="#FDB62F"/>
<path d="M39.3105 43.2415H17.6899C23.8223 39.3104 33.1781 39.3104 39.3105 43.2415Z" fill="#FFA230"/>
<path d="M29.4821 34.3965H27.5166V39.3103H29.4821V34.3965Z" fill="#126099"/>
<path d="M28.4997 35.3792C29.5852 35.3792 30.4652 34.4993 30.4652 33.4137C30.4652 32.3282 29.5852 31.4482 28.4997 31.4482C27.4142 31.4482 26.5342 32.3282 26.5342 33.4137C26.5342 34.4993 27.4142 35.3792 28.4997 35.3792Z" fill="#126099"/>
<path d="M17.6899 25.5515H39.3106C33.1781 29.4826 23.8223 29.4826 17.6899 25.5515Z" fill="#FDC353"/>
<path d="M12.7759 22.6032C12.7759 19.8898 14.9763 17.6894 17.6897 17.6894C14.9763 17.6894 12.7759 15.489 12.7759 12.7756" fill="#FDC353"/>
<path d="M12.7761 12.7766C12.7761 15.49 10.5757 17.6904 7.8623 17.6904C10.5757 17.6904 12.7761 19.8908 12.7761 22.6042" fill="#FDC353"/>
</svg>

<svg width="57" height="57" fill="none" xmlns="http://www.w3.org/2000/svg"><path d="M4.914 9.828v10.417A40.43 40.43 0 0028.5 57a40.43 40.43 0 0023.586-36.755V9.828A32.607 32.607 0 0131.232 2.28L28.5 0l-2.732 2.28A32.607 32.607 0 014.914 9.828z" fill="#4398D1"/><path d="M40.028 7.508c-3.45 21.13-13.376 34.023-22.82 41.738A40.335 40.335 0 0028.5 57a40.43 40.43 0 0023.586-36.755V9.828a32.632 32.632 0 01-12.058-2.32z" fill="#3E8CC7"/><path d="M32.431 27.517v-5.896a3.931 3.931 0 00-7.862 0v5.896h-3.93v-5.896a7.863 7.863 0 0115.723 0v5.896h-3.93z" fill="#E5E5E5"/><path d="M20.638 27.517h3.93V22.88c-1.278.635-2.59 1.2-3.93 1.69v2.948zM33.895 15.91a26.639 26.639 0 01-2.82 2.762 3.929 3.929 0 011.356 2.949v5.896h3.93v-5.896a7.859 7.859 0 00-2.466-5.71z" fill="#D6D6D6"/><path d="M39.31 25.552H17.69v17.69h21.62v-17.69z" fill="#FDB62F"/><path d="M39.31 25.552H17.69v17.69h21.62v-17.69z" fill="#FDB62F"/><path d="M39.31 43.242H17.69c6.132-3.932 15.488-3.932 21.62 0z" fill="#FFA230"/><path d="M29.482 34.397h-1.965v4.913h1.965v-4.913z" fill="#126099"/><path d="M28.5 35.38a1.965 1.965 0 100-3.932 1.965 1.965 0 000 3.931z" fill="#126099"/><path d="M17.69 25.552h21.62c-6.132 3.93-15.488 3.93-21.62 0zm-4.914-2.949c0-2.713 2.2-4.914 4.914-4.914a4.914 4.914 0 01-4.914-4.913m0 .001c0 2.713-2.2 4.913-4.914 4.913 2.714 0 4.914 2.2 4.914 4.914" fill="#FDC353"/></svg>
